assets/img/common/icon-link-arrow.svg

<svg fill="none" height="16" viewBox="0 0 16 16" width="16" xmlns="http://www.w3.org/2000/svg"><path clip-rule="evenodd" d="m8 16c4.4183 0 8-3.5817 8-8 0-4.41828-3.5817-8-8-8-4.41828 0-8 3.58172-8 8 0 4.4183 3.58172 8 8 8zm-1.85355-4.9755c-.19527.2232-.19527.585 0 .8081.19526.2232.51184.2232.7071 0l3-3.42854c.09377-.10716.14645-.25251.14645-.40406s-.05268-.2969-.14645-.40406l-3-3.42857c-.19526-.22316-.51184-.22316-.7071 0-.19527.22315-.19527.58496 0 .80812l2.64644 3.02451z" fill="#3e765e" fill-rule="evenodd"/></svg>

<svg width="16" height="16" viewBox="0 0 16 16" fill="none" xmlns="http://www.w3.org/2000/svg">
  <path fill-rule="evenodd" clip-rule="evenodd"
    d="M8 16C12.4183 16 16 12.4183 16 8C16 3.58172 12.4183 0 8 0C3.58172 0 0 3.58172 0 8C0 12.4183 3.58172 16 8 16ZM6.14645 11.0245C5.95118 11.2477 5.95118 11.6095 6.14645 11.8326C6.34171 12.0558 6.65829 12.0558 6.85355 11.8326L9.85355 8.40406C9.94732 8.2969 10 8.15155 10 8C10 7.84845 9.94732 7.7031 9.85355 7.59594L6.85355 4.16737C6.65829 3.94421 6.34171 3.94421 6.14645 4.16737C5.95118 4.39052 5.95118 4.75233 6.14645 4.97549L8.79289 8L6.14645 11.0245Z"
    fill="#3E765E">
  </path>
</svg>
